X:1
T:The Meltdown
T:The Meltdown
T:Maxence Cyrin
C:Maxence Cyrin
%%score { 1 | 2 }
L:1/8
M:2/2
K:Bb
V:1 treble nm="Piano" snm="Pno."
V:2 bass 
V:1
 z8 | z4 G,/A,/B,/C/ D/=E/^F/G/ | %2
 (10:8:10A/B/c/d/=e/ _f/"_Ad libitum"g/f/e/d/ (10:8:10c/B/A/G/^F/ =E/D/C/B,/A,/ | G,8 | z8 | %5
 E,/F,/_G,/_A,/ B,/C/D/E/ (10:8:10F/_G/"_Ad libitum"_A/B/c/ _d/e/d/c/B/ | %6
 (10:8:10_A/_G/F/E/_D/ C/B,/_A,/_G,/F,/ E,4 | z8 | z8 || [DG]B,[DG]B, [DG]B,[DG]B, | %10
 [DA]B,[DA]B, [DB]B,[DB]B, | [E_G]B,[EG]B, [EG]B,[EG]B, | [E_G]B,[EG]B, [EG]B,[EG]B, | %13
 [D=G]B,[DG]B, [DG]B,[DG]B, | [DA]B,[DA]B, [DB]B,[DB]B, | [E_G]B,[EG]B, [EG]B,[EG]B, | %16
 [E_G]B,[EG]B, [EG]B,[EG]B, || [D=G]B,[DG]B, [DG]B,[DG]B, | [DA]B,[DA]B, [DB]B,[DB]B, | %19
 [E_G]B,[EG]B, [EG]B,[EG]B, | [E_G]B,[EG]B, [EG]B,[EG]B, | [D=G]B,[DG]B, [DG]B,[DG]B, | %22
 [DA]B,[DA]B, [DB]B,[DB]B, | [E_G]B,[EG]B, [EG]B,[EG]B, | [E_G]B,[EG]B, [EG]B,[EG]!fermata!B, || %25
 B,DB,D B,DB,D | B,DB,D B,DB,D | B,EB,E B,EB,E | B,EB,E B,EB,E | B,DB,D B,DB,D | B,DB,D B,DB,D | %31
 B,EB,E B,EB,E | B,EB,E B,EB,E | B,DB,D B,DB,D | B,DB,D B,DB,D | B,EB,E B,EB,E | B,EB,E B,EB,E || %37
 [D=G]B,[DG]B, [DG]B,[DG]B, | [DA]B,[DA]B, [DB]B,[DB]B, | [E_G]B,[EG]B, [EG]B,[EG]B, | %40
 [E_G]B,[EG]B, [EG]B,[EG]B, | [D=G]B,[DG]B, [DG]B,[DG]B, | [DA]B,[DA]B, [DB]B,[DB]B, | %43
 [E_G]B,[EG]B, [EG]B,[EG]B, | [E_G]B,[EG]B, [EG]B,[EG]B, | [D=G]B,[DG]B, [DG]B,[DG]B, | %46
 [DA]B,[DA]B, [DB]B,[DB]B, | [E_G]B,[EG]B, [EG]B,[EG]B, | [E_G]B,[EG]B, [EG]B,[EG]B, || %49
 (6:4:6[B,D=G][B,DG][B,DG][B,DG][B,DG][B,DG] (6:4:6[B,DG][B,DG][B,DG][B,DG][B,DG][B,DG] | %50
 (6:4:6[B,DA][B,DA][B,DA][B,DA][B,DA][B,DA] (6:4:6[B,DB][B,DB][B,DB][B,DB][B,DB][B,DB] | %51
 (6:4:6[B,E_G][B,EG][B,EG][B,EG][B,EG][B,EG] (6:4:6[B,EG][B,EG][B,EG][B,EG][B,EG][B,EG] | %52
 (6:4:6[B,E_G][B,EG][B,EG][B,EG][B,EG][B,EG] (6:4:6[B,EG][B,EG][B,EG][B,EG][B,EG][B,EG] | %53
 (6:4:6[B,D=G][B,DG][B,DG][B,DG][B,DG][B,DG] (6:4:6[B,DG][B,DG][B,DG][B,DG][B,DG][B,DG] | %54
 (6:4:6[B,DA][B,DA][B,DA][B,DA][B,DA][B,DA] (6:4:6[B,DB][B,DB][B,DB][B,DB][B,DB][B,DB] | %55
 (6:4:6[B,E_G][B,EG][B,EG][B,EG][B,EG][B,EG] (6:4:6[B,EG][B,EG][B,EG][B,EG][B,EG][B,EG] | %56
 (6:4:6[B,E_G][B,EG][B,EG][B,EG][B,EG][B,EG] (6:4:6[B,EG][B,EG][B,EG][B,EG][B,EG][B,EG] || %57
 [Bd=g]2 (3[Bdg][Bdg][Bdg] [Bdg]2 (3[Bdg][Bdg][Bdg] | %58
 [Bda]2 (3[Bda][Bda][Bda] (6:4:6[Bdb][Bdb][Bdb][Bdb][Bdb][Bdb] | %59
 [Be_g]2 (3[Beg][Beg][Beg] [Beg]2 (3[Beg][Beg][Beg] | %60
 [Be_g]2 (3[Beg][Beg][Beg] (6:4:6[Beg][Beg][Beg][Beg][Beg][Beg] | %61
 [Bd=g]2 (3[Bdg][Bdg][Bdg] [Bdg]2 (3[Bdg][Bdg][Bdg] | %62
 [Bda]2 (3[Bda][Bda][Bda] (6:4:6[Bdb][Bdb][Bdb][Bdb][Bdb][Bdb] | %63
 [Be_g]2 (3[Beg][Beg][Beg] [Beg]2 (3[Beg][Beg][Beg] | %64
 [Be_g]2 (3[Beg][Beg][Beg] (6:4:6[Beg][Beg][Beg][Beg][Beg][Beg] | %65
 [Bd=g]2 (3[Bdg][Bdg][Bdg] [Bdg]2 (3[Bdg][Bdg][Bdg] | %66
 [Bda]2 (3[Bda][Bda][Bda] (6:4:6[Bdb][Bdb][Bdb][Bdb][Bdb][Bdb] | %67
 [Be_g]2 (3[Beg][Beg][Beg] [Beg]2 (3[Beg][Beg][Beg] | %68
 [Be_g]2 (3[Beg][Beg][Beg] (6:4:6[Beg][Beg][Beg][Beg][Beg][Beg] | %69
 [Bd=g]2 (3[Bdg][Bdg][Bdg] [Bdg]2 (3[Bdg][Bdg][Bdg] | %70
 [Bda]2 (3[Bda][Bda][Bda] (6:4:6[Bdb]"_Slow down"[Bdb][Bdb][Bdb][Bdb][Bdb] | %71
 [Be_g]2 (3[Beg][Beg][Beg] [Beg]2 (3[Beg][Beg][Beg] | %72
 [Be_g]2 (3[Beg][Beg][Beg] (6:4:6[Beg][Beg][Beg][Beg][Beg][Beg] || %73
"_Fast" g/f/e/d/ c/B/A/G/ (7:8:7_G/E/D/C/B/A/G/ | %74
 (13:16:13_G/E/D/C/B,/A,/G,/[K:bass]_G,/E,/D,/C,/B,,/A,,/ | z8 |] %76
V:2
 G,,D,G,,D, G,,D,G,,D, | G,,D,G,,D, G,,D,G,,D, | G,,D,G,,D, G,,D,G,,D, | G,,D,G,,D, G,,D,G,,D, | %4
 G,,D,G,,D, ^F,,^C,F,,C, | E,,B,,E,,B,, E,,B,,E,,B,, | E,,B,,E,,B,, E,,B,,E,,B,, | %7
 E,,B,,E,,B,, E,,B,,E,,B,, | E,,B,,E,,B,, E,,B,,E,,!fermata!B,, || G,,D,G,D, G,,D,G,D, | %10
 G,,D,G,D, G,,D,G,D, | E,,B,,E,B,, E,,B,,E,B,, | E,,B,,E,B,, E,,B,,E,B,, | G,,D,G,D, G,,D,G,D, | %14
 G,,D,G,D, G,,D,G,D, | E,,B,,E,B,, E,,B,,E,B,, | E,,B,,E,B,, E,,B,,E,B,, || %17
 [=G,,,=G,,]D,,[G,,,G,,]D,, [G,,,G,,]D,,[G,,,G,,]D,, | %18
 [A,,,A,,]D,,[A,,,A,,]D,, [B,,,B,,]D,,[B,,,B,,]D,, | [E,,E,]B,,[E,,E,]B,, [E,,E,]B,,[E,,E,]B,, | %20
 [F,,F,]B,,[F,,F,]B,, [_G,,_G,]B,,[G,,G,]B,, | %21
 [=G,,,=G,,]D,,[G,,,G,,]D,, [G,,,G,,]D,,[G,,,G,,]D,, | %22
 [A,,,A,,]D,,[A,,,A,,]D,, [B,,,B,,]D,,[B,,,B,,]D,, | [E,,E,]B,,[E,,E,]B,, [E,,E,]B,,[E,,E,]B,, | %24
 [F,,F,]B,,[F,,F,]B,, [_G,,_G,]B,,[G,,G,]B,, || D,G,D,G, D,G,D,G, | D,G,D,G, D,G,D,G, | %27
 B,,_G,B,,G, B,,G,B,,G, | B,,_G,B,,G, B,,G,B,,G, | D,=G,D,G, D,G,D,G, | D,G,D,G, D,G,D,G, | %31
 B,,_G,B,,G, B,,G,B,,G, | B,,_G,B,,G, B,,G,B,,G, | D,=G,D,G, D,G,D,G, | D,G,D,G, D,G,D,G, | %35
 B,,_G,B,,G, B,,G,B,,G, | B,,_G,B,,G, B,,G,B,,G, || D,[F,=G,]D,G, D,G,D,G, | D,G,D,G, D,G,D,G, | %39
 B,,_G,B,,G, B,,G,B,,G, | B,,_G,B,,G, B,,G,B,,G, | D,=G,D,G, D,G,D,G, | D,G,D,G, D,G,D,G, | %43
 B,,_G,B,,G, B,,G,B,,G, | B,,_G,B,,G, B,,G,B,,G, | D,=G,D,G, D,G,D,G, | D,G,D,G, D,G,D,G, | %47
 B,,_G,B,,G, B,,G,B,,G, | B,,_G,B,,G, B,,G,B,,G, || [G,,,G,,]4 [G,,G,]2 [G,,G,]2 | %50
 [G,,G,]4 [_G,,,_G,,]2 [G,,,G,,]2 | [E,,,E,,]2 [E,,E,]2 [E,,E,]2 [E,,E,]2 | %52
 [E,,E,]2 [E,,E,]2 [E,,E,]2 [E,,E,]2 | [G,,,G,,]2 [G,,,G,,]2 [G,,,G,,]2 [G,,,G,,]2 | %54
 [G,,,G,,]2 [G,,,G,,]2 [_G,,,_G,,]2 [G,,,G,,]2 | [E,,,E,,]2 [E,,,E,,]2 [E,,,E,,]2 [E,,,E,,]2 | %56
 [E,,,E,,]2 [E,,,E,,]2 [E,,,E,,]2 [E,,,E,,]2 || %57
 [=G,,,=G,,]2 (3[G,,,G,,][G,,,G,,][G,,,G,,] [G,,,G,,]2 (3[G,,,G,,][G,,,G,,][G,,,G,,] | %58
 [G,,,G,,]2 (3[G,,,G,,][G,,,G,,][G,,,G,,] (6:4:6[_G,,,_G,,][G,,,G,,][G,,,G,,][G,,,G,,][G,,,G,,][G,,,G,,] | %59
 [E,,,E,,]2 (3[E,,,E,,][E,,,E,,][E,,,E,,] [E,,,E,,]2 (3[E,,,E,,][E,,,E,,][E,,,E,,] | %60
 [E,,,E,,]2 (3[E,,,E,,][E,,,E,,][E,,,E,,] (6:4:6[E,,,E,,][E,,,E,,][E,,,E,,][E,,,E,,][E,,,E,,][E,,,E,,] | %61
 [=G,,,=G,,]2 (3[G,,,G,,][G,,,G,,][G,,,G,,] [G,,,G,,]2 (3[G,,,G,,][G,,,G,,][G,,,G,,] | %62
 [G,,,G,,]2 (3[G,,,G,,][G,,,G,,][G,,,G,,] (6:4:6[_G,,,_G,,][G,,,G,,][G,,,G,,][G,,,G,,][G,,,G,,][G,,,G,,] | %63
 [E,,,E,,]2 (3[E,,,E,,][E,,,E,,][E,,,E,,] [E,,,E,,]2 (3[E,,,E,,][E,,,E,,][E,,,E,,] | %64
 [E,,,E,,]2 (3[E,,,E,,][E,,,E,,][E,,,E,,] (6:4:6[E,,,E,,][E,,,E,,][E,,,E,,][E,,,E,,][E,,,E,,][E,,,E,,] | %65
 [=G,,,=G,,]2 (3[G,,,G,,][G,,,G,,][G,,,G,,] [G,,,G,,]2 (3[G,,,G,,][G,,,G,,][G,,,G,,] | %66
 [G,,,G,,]2 (3[G,,,G,,][G,,,G,,][G,,,G,,] (6:4:6[_G,,,_G,,][G,,,G,,][G,,,G,,][G,,,G,,][G,,,G,,][G,,,G,,] | %67
 [E,,,E,,]2 (3[E,,,E,,][E,,,E,,][E,,,E,,] [E,,,E,,]2 (3[E,,,E,,][E,,,E,,][E,,,E,,] | %68
 [E,,,E,,]2 (3[E,,,E,,][E,,,E,,][E,,,E,,] (6:4:6[E,,,E,,][E,,,E,,][E,,,E,,][E,,,E,,][E,,,E,,][E,,,E,,] | %69
 [=G,,,=G,,]2 (3[G,,,G,,][G,,,G,,][G,,,G,,] [G,,,G,,]2 (3[G,,,G,,][G,,,G,,][G,,,G,,] | %70
 [G,,,G,,]2 (3[G,,,G,,][G,,,G,,][G,,,G,,] (6:4:6[_G,,,_G,,][G,,,G,,][G,,,G,,][G,,,G,,][G,,,G,,][G,,,G,,] | %71
 [E,,,E,,]2 (3[E,,,E,,][E,,,E,,][E,,,E,,] [E,,,E,,]2 (3[E,,,E,,][E,,,E,,][E,,,E,,] | %72
 [E,,,E,,]2 (3[E,,,E,,][E,,,E,,][E,,,E,,] (6:4:6[E,,,E,,][E,,,E,,][E,,,E,,][E,,,E,,][E,,,E,,][E,,,E,,] || %73
 [G,,,G,,]2 [G,,,G,,]2 [G,,,G,,]2 [G,,,G,,]2 | [G,,,G,,]2 [G,,,G,,]2 [G,,,G,,]4 | %75
 !fermata![G,,,G,,]8 |] %76

